img/favicon/icon.svg

<svg width="152" height="152" viewBox="0 0 152 152" fill="none" xmlns="http://www.w3.org/2000/svg">
<rect width="152" height="152" fill="#EEEEEE"/>
<path d="M71.2101 25.3715C76.8628 37.0263 59.4643 44.9423 51.4824 36.2C48.1564 32.4755 49.6862 25.2781 57.7538 21.3668C61.7911 19.3645 67.4439 17.5441 71.2101 25.3715Z" fill="black"/>
<path d="M106.795 20.2435C112.945 32.9306 93.9949 41.5508 85.3087 32.0324C81.6877 27.9726 83.3507 20.1453 92.1439 15.8843C96.5358 13.7023 102.688 11.7263 106.795 20.2435Z" fill="black"/>
<path fill-rule="evenodd" clip-rule="evenodd" d="M70.4038 128.699C83.2748 130.181 96.6716 126.14 101.846 117.796C106.221 110.795 102.641 108.371 97.5995 114.023C86.9886 126.277 75.978 120.756 71.3364 108.371L72.5307 107.968C94.9467 98.9483 109.007 74.4506 100.121 60.5851C87.9141 41.4693 49.7126 58.5636 44.9353 85.3534C40.5577 110.122 51.9656 126.679 70.4038 128.699ZM84.2024 61.9336C88.0494 68.125 83.4077 90.067 69.478 100.028C69.0807 96.9292 69.0807 93.5664 69.3448 90.067C72.1307 65.567 80.0912 55.4738 84.2024 61.9336Z" fill="black"/>
</svg>

<svg width="152" height="152" fill="none" xmlns="http://www.w3.org/2000/svg"><path fill="#EEE" d="M0 0h152v152H0z"/><path d="M71.21 25.372c5.653 11.654-11.746 19.57-19.728 10.828-3.326-3.725-1.796-10.922 6.272-14.833 4.037-2.003 9.69-3.823 13.456 4.005zm35.585-5.128c6.15 12.687-12.8 21.307-21.486 11.788-3.621-4.06-1.958-11.887 6.835-16.148 4.392-2.182 10.544-4.158 14.651 4.36z" fill="#000"/><path fill-rule="evenodd" clip-rule="evenodd" d="M70.404 128.699c12.87 1.482 26.268-2.559 31.442-10.903 4.375-7.001.795-9.425-4.246-3.773-10.611 12.254-21.622 6.733-26.264-5.652l1.195-.403c22.416-9.02 36.476-33.517 27.59-47.383-12.207-19.116-50.408-2.021-55.186 24.768-4.377 24.769 7.03 41.326 25.469 43.346zm13.798-66.765c3.847 6.191-.794 28.133-14.724 38.094-.397-3.099-.397-6.462-.133-9.961 2.786-24.5 10.746-34.593 14.857-28.133z" fill="#000"/></svg>
